!!!COM: Palestrina, Giovanni Perluigi da
!!!OPR: Dum esset summus pontifex
!!!OTL: Benedictus
**kern	**kern	**kern	**kern
*ICvox	*ICvox	*ICvox	*ICvox
*Ibass	*Itenor	*Icalto	*Icant
!Bassus	!Tenor	!Altus	!Cantus
*clefF4	*clefGv2	*clefG2	*clefG2
*k[]	*k[]	*k[]	*k[]
*A:aeo	*A:aeo	*A:aeo	*A:aeo
*M4/2	*M4/2	*M4/2	*M4/2
=1	=1	=1	=1
1.G	0r	0r	0r
2G	.	.	.
=2	=2	=2	=2
1G	0r	1.d	0r
1F	.	.	.
.	.	2d	.
=3	=3	=3	=3
1B-	0r	1d	0r
2.A	.	1c	.
4G	.	.	.
=4	=4	=4	=4
2F	0r	1f	0r
4E	.	.	.
4D	.	.	.
1E	.	1g	.
=5	=5	=5	=5
2.D	1.d	2.f	0r
4E	.	4g	.
2F	.	2a	.
2G	2d	2g	.
=6	=6	=6	=6
1D	1d	2f	1.a
.	.	4e	.
.	.	4d	.
1A	1c	1e	.
.	.	.	2a
=7	=7	=7	=7
1D	1f	2d	1a
.	.	4A	.
.	.	4B	.
1r	2.e	4c	1g
.	.	4d	.
.	.	4e	.
.	4d	4f	.
=8	=8	=8	=8
0r	2c	2g	1cc
.	4B	1a	.
.	4A	.	.
.	1B	.	1dd
.	.	2g#	.
=9	=9	=9	=9
2r	2.A	1a	2.cc
1A	.	.	.
.	4B	.	4dd
.	4c	4A	1ee
.	4d	4B	.
2A	[2e	4c	.
.	.	4d	.
=10	=10	=10	=10
1A	2e]	2e	2a
.	2c	2f	1cc
1G	1d	1g	.
.	.	.	2b
=11	=11	=11	=11
1c	1e	2r	2a
.	.	1cc	2g
1d	1f	.	2f
.	.	2b	[2ff
=12	=12	=12	=12
1c	0r	2a	2ff]
.	.	2g	2ee
1d	.	2f	2dd
.	.	[2a	2cc
=13	=13	=13	=13
1e	1r	2a]	1b
.	.	2g#	.
1r	2r	2.a	[1a
.	[2d	.	.
.	.	4g	.
=14	=14	=14	=14
0r	2d]	4f	0a]
.	.	4e	.
.	2d	1f	.
.	1d	.	.
.	.	4e	.
.	.	4d	.
=15	=15	=15	=15
1A	1c	1e	2r
.	.	.	1a
1d	1f	2d	.
.	.	[2f	2a
=16	=16	=16	=16
1c	1g	4f]	1cc
.	.	8e	.
.	.	8d	.
.	.	2e	.
2A	1f	2c	2cc
2B-	.	[2f	2dd
=17	=17	=17	=17
1G	1g	4f]	1b-
.	.	8e	.
.	.	8d	.
.	.	2e	.
1F	2.a	2f	2a
.	.	[2a	4f
.	4g	.	4g
=18	=18	=18	=18
0r	2f	2a]	4a
.	.	.	4b
.	4e	4g	4cc
.	4d	4f	4dd
.	2c	2g	2ee
.	2d	2f	[2dd
=19	=19	=19	=19
2r	1A	2e	2dd]
1A	.	1e	4cc#
.	.	.	4b
.	1r	.	2cc#
[2d	.	[2f	2dd
=20	=20	=20	=20
2d]	1r	2f]	0a
2c#	.	2e	.
2d	2r	2f	.
4A	[2e	4c	.
4B	.	4d	.
=21	=21	=21	=21
4c	2e]	4e	0r
4B	.	4d	.
4A	1a	4c	.
4G	.	4B	.
2F	.	2A	.
2E	2g	2e	.
=22	=22	=22	=22
0D	2a	1f	2r
.	4d	.	1a
.	4e	.	.
.	4f	2r	.
.	4e	.	.
.	4d	[2d	[2dd
.	4c	.	.
=23	=23	=23	=23
0r	2B	2d]	2dd]
.	2e	1g	2cc#
.	1d	.	2dd
.	.	2f#	4a
.	.	.	4b
=24	=24	=24	=24
1r	2c	2g	4cc
.	.	.	4b
.	2.F	4a	4a
.	.	4b	4g
2r	.	4cc	2f
.	4G	4b	.
[2A	2A	4a	2e
.	.	4g	.
=25	=25	=25	=25
2A]	2D	2f	1a
1d	2D	2f	.
.	1A	2e	2r
2c#	.	2e	[2a
=26	=26	=26	=26
2d	1r	2f	4a]
.	.	.	4b
4A	.	2a	4cc
4B	.	.	4dd
4c	2r	2g	2ee
4B	.	.	.
4A	[2A	[2cc	[2ff
4G	.	.	.
=27	=27	=27	=27
2F	2A]	2cc]	2ff]
2G	1d	2b	4ee
.	.	.	4dd
1A	.	1a	2ff
.	2c#	.	2ee
=28	=28	=28	=28
0r	2d	2r	4a
.	.	.	4b
.	4A	1e	4cc
.	4B	.	4dd
.	4c	.	2ee
.	4B	.	.
.	4A	[2a	[2ff
.	4G	.	.
=29	=29	=29	=29
0r	2F	2a]	2ff]
.	2B-	2g	4ee
.	.	.	4dd
.	1A	2a	4cc
.	.	.	4b
.	.	4e	4cc
.	.	4f	4dd
=30	=30	=30	=30
0r	2G	4g	4ee
.	.	4f	4dd
.	2B-	4e	1dd
.	.	4d	.
.	1A	2e	.
.	.	2e	2cc#
=31	=31	=31	=31
2r	1d	2d	1dd
1D	.	1a	.
.	2f	.	2r
[2A	2e	[2cc	[2a
=32	=32	=32	=32
2A]	2f	2cc]	2a]
2G	4g	2b	1dd
.	4f	.	.
1A	4e	[1a	.
.	4d	.	.
.	2e	.	2cc
=33	=33	=33	=33
4D	1f	1a]	2dd
4E	.	.	.
4F	.	.	4a
4G	.	.	4b
2A	1e	4a	4cc
.	.	4b	4b
2A	.	4cc	4a
.	.	4b	4g
=34	=34	=34	=34
2D	2r	4a	4f
.	.	4g	4g
2F	2A	1f	4a
.	.	.	4b
2F	2a	.	4cc
.	.	.	4dd
2C	2g	2e	[2ee
=35	=35	=35	=35
1D	1f	0a	2ee]
.	.	.	1dd
1A	1e	.	.
.	.	.	2cc#
=36	=36	=36	=36
0D	2.a	2.f	0dd
.	4g	4g	.
.	1f	1a	.
=37	=37	=37	=37
0A	0e	0a	0cc#
==	==	==	==
*-	*-	*-	*-
!!!CDT: 1525/^1526/-1594/2/2
!!!OCY: Italia
!!!AGN: Mass (Paraphrase)
!!!AST: renaissance, vocal
!!!ASW: Antiphon
!!!PWK: Masses, Book 8
!!!RNB: Cadence finals: D
!!!YOR: Le Opere Complete, v. 24, p. 32
!!!YOO: Rome, Italy: Fratelli Scalera
!!!END: 1992//
!!!EED: John Miller
!!!YEC: Copyright 2000, John Miller
!!!YEN: United States of America
!!!YEM: Rights to all derivative electronic formats reserved.
!!!YEM: Refer to licensing agreement for further details.
!!!YEM: This file must be accompanied by the licensing agreement.
!!!YEM: A copy of the licensing agreement may be found at http://www.music-cog.ohio-state.edu/HumdrumDatabases/Palestrina/license.txt
!!!EMD: converted to Humdrum by Bret Aarden
